dist/img/facebook_logo.svg

<svg width="30" height="28" viewBox="0 0 30 28" fill="none" xmlns="http://www.w3.org/2000/svg">
<path d="M30 2.32227V25.6719C30 26.4746 29.2567 27.1191 28.346 27.1191H20.6987V16.959H24.596L25.1786 12.998H20.692V10.4668C20.692 9.31836 21.0536 8.53906 22.9353 8.53906H25.3326V4.99414C24.9174 4.94727 23.4978 4.83594 21.8371 4.83594C18.3817 4.83594 16.0112 6.68164 16.0112 10.0742V12.998H12.1004V16.959H16.0112V27.125H1.65402C0.743304 27.125 0 26.4746 0 25.6777V2.32227C0 1.52539 0.743304 0.875 1.65402 0.875H28.3393C29.2567 0.875 30 1.52539 30 2.32227Z" fill="black"/>
</svg>

<svg width="30" height="28" fill="none" xmlns="http://www.w3.org/2000/svg"><path d="M30 2.322v23.35c0 .803-.743 1.447-1.654 1.447h-7.647V16.96h3.897l.583-3.961h-4.487v-2.531c0-1.149.362-1.928 2.243-1.928h2.398V4.994a36.79 36.79 0 00-3.496-.158c-3.455 0-5.826 1.846-5.826 5.238v2.924h-3.91v3.961h3.91v10.166H1.654c-.91 0-1.654-.65-1.654-1.447V2.322C0 1.525.743.875 1.654.875h26.685c.918 0 1.661.65 1.661 1.447z" fill="#000"/></svg>
